X:1
T:Honiton, 77.77 D
T:Honiton, 77.77 D
T:Edwin Flood, 1845
T:Public Domain Courtesy of the Cyber Hymnal™
C:Edwin Flood, 1845
Z:Public Domain
Z:Courtesy of the Cyber Hymnal™
%%score ( 1 2 ) ( 3 4 )
L:1/8
Q:1/4=112
M:4/4
K:D
V:1 treble 
V:2 treble 
V:3 bass 
V:4 bass 
V:1
 [A,D]2 [DF]2 [EA]2 [Dd]2 | [Dc]2 [DB]2 [DA]4 | [EG]2 [DF]2 [CE]2 D2 | [CG]2 [DF]2 [CE]4 | %4
 [DF]2 [EA]2 [Fe]2 [Gd]2 | [Ac]2 [GB]2 [FA]4 | [EG]2 [DF]2 [FA]2 [EG]2 | [CF]2 [CE]2 D4 | %8
 [CE]2 D2 [EG]2 F2 | [GB]2 [Gc]2 [F^A]4 | [FB]2 [EA]2 [DF]2 [DB]2 | [Fd]2 [Fc]2 [DB]4 | %12
 [A,D]2 [DF]2 [EA]2 [Dd]2 | [Dc]2 [DB]2 [DA]4 | [EG]2 [DF]2 [FA]2 [EG]2 | [DF]2 [CE]2 D4 |] %16
V:2
 x8 | x8 | x6 D2 | x8 | x8 | x8 | x8 | x4 D4 | x2 D2 F2 x2 | x8 | x8 | x8 | x8 | x8 | x8 | x4 D4 |] %16
V:3
 [D,F,]2 [D,A,]2 [D,C]2 [D,B,]2 | [D,A,]2 [D,G,]2 [D,F,]4 | [C,A,]2 [D,A,]2 [G,A,]2 [F,A,]2 | %3
 [E,A,]2 [D,A,]2 [A,,A,]4 | [D,D]2 [D,C]2 [D,=C]2 [D,B,]2 | (G,A,) (B,C) [D,D]4 | %6
 [^A,,C]2 [B,,D]2 [^D,=C]2 [E,B,]2 | [A,,A,]2 [A,,G,]2 [D,F,]4 | %8
 [A,,G,]2 [A,,F,]2 [C,A,]2 [D,A,]2 | [G,B,]2 [E,E]2 [F,C]4 | [B,,D]2 [C,A,]2 [D,D]2 [G,B,]2 | %11
 [F,B,]2 [F,^A,]2 [B,,B,]4 | [D,F,]2 [D,A,]2 [D,C]2 [D,B,]2 | [D,A,]2 [D,G,]2 [D,F,]4 | %14
 [^A,,C]2 [B,,D]2 [^C,=C]2 [E,B,]2 | [A,,A,]2 [A,,G,]2 [D,F,]4 |] %16
V:4
 x8 | x8 | x8 | x8 | x8 | D,2 D,2 x4 | x8 | x8 | x8 | x8 | x8 | x8 | x8 | x8 | x8 | x8 |] %16

